X:1
T:Knick Knack (Davey Davey )
C:Hornpipe
Q:1/4=140
M:4/4
L:1/8   
K:G
%%partsfont        Times-BoldItalic  20
P:A
"G" GFGAB2B2|GFGAB2B2| "D" dcBcA2A2|dcBcA2A2|
"G" GFGAB2B2|GFGA B2B2| "D" dcBc AcBA| "G" G2B2G4||
P:B
Bc|"G" d2dcB2d2|g2g2d4|"D" dcBcA2A2|dcBcA2Bc|
"G" d2dcB2d2|g2g2d4|"D" dcBc AcBA|"G" G2B2G4|]
